icons/desktop/20/airplane-20.svg

<svg width="20" height="20" viewBox="0 0 20 20" fill="none" xmlns="http://www.w3.org/2000/svg">
<g clip-path="url(#clip0_8069_32729)">
<path fill-rule="evenodd" clip-rule="evenodd" d="M14.1276 1.0655C15.2673 -0.0754814 17.1646 -0.412942 18.5778 0.605539L18.5788 0.604562C20.3153 1.85586 20.4596 4.30389 19.0085 5.75788L17.1422 7.62605L18.694 13.4229C18.9359 14.325 18.7092 15.2835 18.1012 15.9796L17.9743 16.1153L16.6549 17.4356C15.9125 18.1781 14.6828 17.9521 14.2272 17.0323C13.8509 16.2723 13.4731 15.3961 13.1393 14.4083C12.8814 13.6451 12.6849 12.9175 12.5338 12.2403L9.99772 14.7784L10.2467 16.8165L10.2575 16.9893C10.2602 17.3349 10.1448 17.6705 9.93033 17.9405L9.8151 18.0694L8.23893 19.6475C7.70074 20.1857 6.72324 20.1188 6.33365 19.3555C5.97299 18.6469 5.60614 17.7963 5.30436 16.8126C5.11888 16.2081 4.98338 15.6352 4.88346 15.1065C4.35663 15.0066 3.78589 14.8732 3.18326 14.6876C2.44672 14.4606 1.78453 14.1972 1.20084 13.9278L0.643223 13.6573C-0.122015 13.2667 -0.1843 12.2901 0.349278 11.753L0.351231 11.752L1.92643 10.1739C2.25584 9.84299 2.71946 9.68431 3.18033 9.74128L5.21256 9.98933L7.75065 7.44929C7.23366 7.33371 6.68711 7.19282 6.11783 7.01667L5.58463 6.84382C4.59707 6.50976 3.72183 6.13094 2.96256 5.75495L2.96158 5.75398C2.04426 5.29764 1.81601 4.06956 2.55924 3.32624L3.8776 2.00593C4.58063 1.30173 5.6076 1.027 6.569 1.28523L12.3571 2.83698L14.1276 1.0655ZM17.5553 2.02448C16.9406 1.5814 15.9921 1.67504 15.3659 2.30183L13.2389 4.43171C13.0178 4.65313 12.6955 4.74032 12.3932 4.65925L6.1149 2.97468C5.75859 2.87906 5.37776 2.98186 5.11686 3.24323L4.03287 4.32624C4.66054 4.62453 5.36451 4.92153 6.14518 5.18562L6.14615 5.18659C7.46689 5.63414 8.66938 5.88182 9.66959 6.02253C9.99804 6.06873 10.2723 6.29687 10.3776 6.6114C10.4828 6.92586 10.401 7.27231 10.1667 7.50691L6.15006 11.5284C5.95985 11.7188 5.69258 11.8109 5.42545 11.7784L3.0817 11.4923L2.14518 12.4307C2.61202 12.6371 3.12995 12.8394 3.69889 13.0147C4.45602 13.248 5.15605 13.3931 5.77213 13.4844C6.09914 13.5329 6.37155 13.7614 6.47525 14.0753C6.49125 14.1237 6.50118 14.1733 6.50846 14.2227L6.58756 14.7003C6.67782 15.1935 6.80289 15.7307 6.97721 16.2989C7.15144 16.8668 7.35246 17.3843 7.55826 17.8507L8.49479 16.9132L8.20963 14.5675C8.17721 14.3008 8.26889 14.034 8.45865 13.8438L12.4762 9.82234L12.569 9.74128C12.7969 9.5699 13.0974 9.51936 13.3727 9.6114C13.6873 9.71671 13.9154 9.99089 13.9616 10.3194C14.1023 11.3208 14.3498 12.5257 14.7965 13.8477C15.0604 14.6285 15.3566 15.3325 15.654 15.9591L16.736 14.878C16.9973 14.6157 17.0994 14.2335 17.0036 13.876L15.3219 7.59089C15.2413 7.28925 15.3269 6.96711 15.5475 6.74616L17.7702 4.52155C18.4286 3.86156 18.4088 2.78113 17.7057 2.14558L17.5553 2.02448Z" fill="black"/>
</g>
<defs>
<clipPath id="clip0_8069_32729">
<rect width="20" height="20" fill="white"/>
</clipPath>
</defs>
</svg>

<!-- This Source Code Form is subject to the terms of the Mozilla Public
   - License, v. 2.0. If a copy of the MPL was not distributed with this
   - file, You can obtain one at http://mozilla.org/MPL/2.0/. -->
<svg xmlns="http://www.w3.org/2000/svg" width="20" height="20" fill="context-fill" fill-opacity="context-fill-opacity" viewBox="0 0 20 20">
    <g clip-path="url(#clip0_8069_32729)">
        <path fill-rule="evenodd" d="M14.128 1.066c1.14-1.141 3.037-1.479 4.45-.46V.605a3.39 3.39 0 0 1 .43 5.153l-1.866 1.868 1.552 5.797a2.79 2.79 0 0 1-.593 2.557l-.127.135-1.32 1.32a1.513 1.513 0 0 1-2.427-.403 21.2 21.2 0 0 1-1.693-4.792l-2.536 2.538.249 2.039.01.172a1.5 1.5 0 0 1-.327.951l-.115.13-1.576 1.578c-.538.538-1.516.47-1.905-.293a15.9 15.9 0 0 1-1.45-4.248 15.7 15.7 0 0 1-3.683-1.18l-.558-.27c-.765-.39-.827-1.367-.294-1.904l.002-.001 1.575-1.578c.33-.331.793-.49 1.254-.433l2.033.248L7.75 7.45a21 21 0 0 1-1.633-.432l-.533-.173a21 21 0 0 1-2.622-1.09h-.001c-.918-.456-1.146-1.684-.403-2.428l1.319-1.32a2.78 2.78 0 0 1 2.691-.72l5.788 1.551zm3.427.958c-.614-.443-1.563-.349-2.19.278l-2.126 2.13a.88.88 0 0 1-.846.227L6.115 2.975a1.03 1.03 0 0 0-.998.268L4.033 4.326c.628.299 1.332.596 2.112.86h.001c1.32.448 2.523.696 3.524.837a.875.875 0 0 1 .497 1.484L6.15 11.528a.88.88 0 0 1-.725.25l-2.343-.286-.937.939c.467.206.985.408 1.554.584.757.233 1.457.378 2.073.47a.88.88 0 0 1 .736.738l.08.477a14.038 14.038 0 0 0 .97 3.15l.937-.937-.285-2.345a.88.88 0 0 1 .249-.724l4.017-4.022.093-.08a.876.876 0 0 1 1.393.577c.14 1.002.388 2.207.835 3.529.263.78.56 1.484.857 2.111l1.082-1.081a1.04 1.04 0 0 0 .268-1.002l-1.682-6.285a.88.88 0 0 1 .226-.845l2.222-2.224c.659-.66.639-1.74-.064-2.376z" clip-rule="evenodd" />
    </g>
</svg>
